!!!ONB: MCCC : IJH0413_01 : Extracted Monophonic Melody
!!!COM: Haydn, Joseph
!!!OPR: String Quartet in B-flat major
!!!OMV: 1
!!!SCT: Hob.III:69 ; Op.71 No.1
!!!ODT: 1793///
**kern
*thru
*k[b-e-]
*B-:
*clefF
*M4/4
8ff
8r
8ee-
8r
8dd
8r
8a
8r
=1
4b-
2.r
=2
2ff
4dd
4b-
=3
4.bb-
16ddd
16bb-
4ff
8r
8dd
=4
4cc
4b
4cc
4a
=5
8b-
8r
8dd
8r
4ff
8r
8dd
=6
4cc
4b
4cc
4a
=7
4b-
8r
16dd
16b-
16a
16b-
16a
16b-
16a
16b-
16cc
16a
=8
4b-
8r
16ff
16ddd
16ccc
16bb
16ccc
16bb
16ccc
16eee-
16ccc
16aa
=9
4bb-
8r
16dd
16b-
16a
16b-
16a
16b-
16a
16b-
16cc
16a
=10
4b-
8r
16ff
16ddd
16ccc
16bb
16ccc
16bb
16ccc
16eee-
16ccc
16aa
=11
8bb-
4bb-
16ddd
16bb-
8aa
4aa
16ccc
16aa
=12
8bb-
4bb-
16ddd
16bb-
8aa
4aa
16ccc
16aa
=13
8bb-
4ddd
8ff#
8gg
4bb-
8dd
=14
8cc
4bb-
8cc
8dd-
4bb-
8b-
=15
8a
8ff
8ff
8ff
8ff
8ff
8ff
8ff
=16
1ff[
=17
2..ff]
8aa-
=18
4gg-
4ff
4.gg-
8ff
=19
1gg-
=20
2ff
4dd
4b-
=21
4.bb-
16ddd
16bb-
4ff
8r
8dd
=22
4cc
4b
4cc
4a
=23
8b-
8r
8dd
8r
4ff
8r
8dd
=24
4cc
4b
4cc
4a
=25
2.b-
4a-
=26
2a-
4g
4g
=27
4f
4e
4f
4g
=28
2.f
4A
=29
2B-
4d
4f
=30
4b-
4dd
4ff
4bb-
=31
1eee[
=32
8eee]
4eee
4eee
4eee
8ccc
=33
1fff
=34
1bb
=35
2ccc
4.fff
8bb
=36
8ccc
16cc
16dd
16ee
16ff
16gg
16ee
8cc
16c
16d
16e
16f
16g
16e
=37
4c
4ccc
4c
4r
=38
2ccc
4aa
4ff
=39
2ddd
4bb-
4gg
=40
8aa
8cc#
8dd
8ee
8ff
8gg
8aa
8bb-
=41
8r
8dd#
8ee
8ff
8gg
8aa
8bb-
8ccc
=42
2aa
4ff
4dd
=43
2ddd
4bb-
4gg
=44
8ff
8ee
8aa
8gg
8ff
8ee
8dd
8cc
=45
2cc
4ee
4gg
=46
2cc
4ff
4aa
=47
1cc
=48
3..cc[
24cc]
8b-
8a
8g
=49
2.f
4g
=50
16f
16a
16cc]
16ff
16ee
16gg
16ee
16cc
16ff
16ccc
16aa
16ff
16ee
16gg
16ee
16cc
=51
16f
16a
16cc
16ff
16ee
16gg
16ee
16cc
16ff
16ccc
16aa
16ff
16ee
16gg
16ee
16cc
=52
4ff
4aa
4ccc
4fff
=53
2aaa
2bb
=54
4ccc
2.r
=55
8r
16aa
16bb-
16ccc
16ddd
16eee
16fff
8ccc
8aa
8ff
8cc
=56
8b-
8g
8e
8c
8B-
8G
8b-
8e
=57
8r
8f
8r
8g
8r
8a
16r
16g
16f#
16g
=58
16r
16a
16g#
16a
16r
16b-
16a
16b-
16cc
16dd
16ee
16ff
16ee
16ff
16ee
16ff
=59
2dd
2ee
=60
16ff
16cc
16b
16cc
16gg
16cc
16b
16cc
16aa
16cc
16b
16cc
16bb-
16gg
16ff
16ee
=61
8ccc
8aa
8ccc
8aa
4ccc
4r
=62
8r
8ccc
8fff
8ccc
4fff
4r
=63
1ddd
=64
1gg
=65
4ff
2r
8.bb-
16ee
=66
8ff
16aa
16gg
16ff
16ee
16dd
16cc
16b-
16a
16g
16f
16e
16g
16a
16b-
=67
8a
8r
8gg
8r
8aa
8r
8eee
8r
=68
4fff
2.r
=69
1r
=70
1r
=71
2ff
4dd
4b-
=72
4.bb-
16ddd
16bb-
4ff
8r
8dd
=73
4cc
4b
4cc
4dd
=74
4ee-
2.r
=75
1r
=76
2bb-
4gg
4ee-
=77
4.eee-
16ggg
16eee-
4bb-
8r
8gg
=78
4ff
4ee
4ff
4dd
=79
8ee-
8r
8gg
8r
4bb-
8r
8gg
=80
4ff
4ee
4ff
4dd
=81
4ee-
4dd
4ee-
4dd-
=82
4cc
4b
4cc
4bb-
=83
4aa-
8r
16ccc
16ff
16ee
16ff
16ee
16ff
16ee
16ff
16gg
16ee
=84
4ff
4r
2ddd-
=85
4ccc
8r
16ccc
16ff
16ee
16ff
16ee
16ff
16ee
16ff
16gg
16ee
=86
16ff
16ccc
16aa-
16ff
16ee
16ff
16gg
16ee
16ff
16ccc
16aa-
16ff
16ee
16ff
16gg
16ee
=87
16ff
16cc
16ff
16gg
16aa-
16bb-
16aa-
16gg
16ff
16gg
16ff
16ee-
16dd
16ee-
16dd
16cc
=88
16b
16cc
16dd
16ee-
16ff
16ee-
16dd
16cc
16b
16a-
16g
16a-
16g
16f
16e-
16d
=89
4c
8r
16gg
16cc
16b
16cc
16b
16cc
16b
16cc
16dd
16b
=90
4cc
8r
16gg
16eee-
16ddd
16ccc
16bb
16ccc
16bb
16ccc
16ddd
16bb
=91
4ccc
8r
16gg
16cc
16b
16cc
16b
16cc
16b
16cc
16dd
16b
=92
16cc
16gg
16ee-
16cc
16b
16cc
16dd
16b
16cc
16gg
16ee-
16cc
16b
16cc
16dd
16b
=93
16cc
16dd
16ee-
16ff
16ee-
16dd
16cc
16b-
16a
16b-
16cc
16dd
16cc
16b-
16a
16g
=94
16f#
16g
16a
16b-
16a
16g
16f#
16e-
16d
16e-
16d
16e-
16d
16c
16B-
16A
=95
4G
2.r
=96
4r
8aa
8r
8bb-
8r
8ccc
8r
=97
16bb-
16ccc
16ddd
16ccc
16bb-
16aa
16gg
16ff
16ee-
16dd
16cc
16b-
16a
16g
16ff#
16gg
=98
8ff#
8r
8aa
8r
8ccc
8r
8ff#
8r
=99
16gg
16bb-
16ddd
16ccc
16bb-
16aa
16gg
16ff
16ee-
16dd
16cc
16b-
16a
16g
16f#
16g
=100
8a-
8r
8cc
8r
8ee-
8r
8aa-
8r
=101
16b
16dd
16ff
16aa-
16gg
16ff
16ee-
16dd
16cc
16b
16dd
16f
16a-
16f
16e-
16d
=102
16e-
16cc
16cc
16cc
16f
16dd
16dd
16dd
16g
16ee-
16ee-
16ee-
16b-
16ee
16ee
16ee
=103
16a-
16cc
16ff
16cc
16e
16cc
16gg
16cc
16f
16cc
16aa-
16cc
16e-
16cc
16aa
16cc
=104
16b-
16bb-
16bb-
16bb-
16cc
16ccc
16ccc
16ccc
16dd
16ddd
16ddd
16ddd
16ee
16eee
16eee
16eee
=105
8ff
8fff
8eee
8ggg
8fff
8ff
8ee
8gg
=106
16ff
16ccc
16aa
16ff
16ee
16gg
16ee
16b-
16a
16ccc
16aa
16ff
16ee
16bb-
16gg
16ee
=107
16ff
16ee
16gg
16ff
16aa
16gg
16bb-
16aa
16ccc
16bb-
16aa
16bb-
16ccc
16aa
16ddd
16bb-
=108
4.eee-
8ddd
8ccc
8bb-
8aa
8gg
=109
8ff
4eee-
8ddd
8ccc
8bb-
8aa
8gg
=110
8ff
4eee-
8ddd
8ccc
8bb-
8aa
8gg
=111
1gg-
=112
2ff
4dd
4b-
=113
4.bb-
16ddd
16bb-
4ff
8r
8dd
=114
4cc
4b
4cc
4a
=115
8b-
8r
8dd
8r
4ff
8r
8dd
=116
4cc
4b
4cc
4a
=117
2.b-
4a-
=118
2a-
4g
4b-
=119
4a
4cc
4b-
4ee-
=120
4dd
8ff
16ee
16ff
4bb-
4ee
=121
1ff[
=122
2ff]
4aa
4ccc
=123
2ff
4bb-
4ddd
=124
1ff
=125
3..fff[
24fff]
8eee-
8ddd
8ccc
=126
2.bb-
4ccc
=127
16d
16f
16b-
16dd
16cc
16ee-
16cc
16a
16b-
16bb-
16ff
16dd
16cc
16ee-
16cc
16a
=128
16d
16f
16b-
16dd
16cc
16ee-
16cc
16a
16b-
16bb-
16ff
16dd
16cc
16ee-
16cc
16a
=129
4b-
4dd
4ff
4bb-
=130
2ddd
2ee
=131
4ff
2.r
=132
8r
16ddd
16ccc
16bb-
16aa
16gg
16ff
16ee-
16dd
16gg
16ff
16ee-
16dd
16cc
16b-
=133
8a
8ee-
8cc
8a
8f
8e-
8c
8A
=134
8B-
8b-
8r
8cc
8r
8dd
16r
16cc
16b
16cc
=135
16r
16dd
16cc#
16dd
16r
16ee-
16dd
16ee-
16ff
16gg
16aa
16bb-
16aa
16bb-
16aa
16bb-
=136
2gg
2aa
=137
16bb-
16ff
16ee
16ff
16ff
16ee-
16dd
16ee-
16dd
16b-
16bb-
16gg
16ff
16dd
16ee-
16cc
=138
16dd
16b-
16bb-
16gg
16ff
16dd
16ee-
16cc
16dd
16b-
16bb-
16gg
16ff
16dd
16ee-
16cc
=139
8dd
8bb-
8ddd
8bb-
4ddd
4r
=140
8r
8ddd
8fff
8ddd
4fff
4r
=141
1ggg
=142
1a
=143
4b-
2r
8.ee-
16a
=144
8b-
16B-
16A
16B-
16c
16d
16e-
16f
16g
16a
16b-
16cc
16dd
16ee-
16ff
=145
1gg
=146
2ff
4dd
4b-
=147
4.bb-
16ddd
16bb-
4ff
8r
8dd
=148
4cc
4b
4cc
4a
=149
4b-
3..r
24r
8dd
=150
12cc
12dd
12cc
12b
12cc
12b
12cc
12dd
12ee-
12a
12b-
12cc
=151
4b-
4r
4cc
8.cc
16dd
=152
4b-
4r
2gg
=153
4ff
4r
4aa
4r
=154
4bb-
2.r
==
*-
